X: 11
T: Ocho Kandelikas
Z: Gideon Klionsky
M: 4/4
L: 1/8
K: Dmin
C: Flory Jagoda
Q: 1/4=140
%
% Instruments and chords:
I: MIDI=gchordon % play chords
I: MIDI=program 06 % Electric piano for melody
I: MIDI=gchord fczcf2c2 % pattern of bass and chords
% this could also be fun - I: MIDI=gchord f2f2ccf2 % pattern of bass and chords
I: MIDI=bassprog 24 % Marimba for the bass note
I: MIDI=chordprog 24 % Tango accordion for the chords
I: MIDI=transpose 0 % Play in the key written
% 
"Dm" zb/a/^ga baef | "Gm" g8 | "A7" z^c'c'b agef | "Dm" d8 |
%
"Dm" zAde baef | "Gm" g8 | "A7" z^c'c'b agef | "Dm" d2 z2 "A7" !accent!!fermata!a4 |
%
"A7" AA^ce !accent!.b2 !accent!.a2 | "Dm" d2 fa .b2 .a2 | "A7" A2^ce !accent!.b2 !accent!.a2 | "Dm" dd fa .b2 .a2 |
%
"A7" zA^ce !accent!.b2 !accent!.a2 | "Dm" d2 df .b2 .a2 | "A7" AA^ce !accent!.b2 !fermata!!accent!a2 | za^ga baef | "Dm" d8 |]
%
W:Hanukka linda sta aki, ocho kandelas para mi (×2)
W:
W:Una kandelika, dos kandelikas, trez kandelikas, kuatro kandelikas,
W:sintyu kandelikas, sesh kandelikas, siete kandelikas,
W:ocho kandelas para mi.
W:
W:Muchas fiestas vo fazer, kon alegriyas y plazer (×2)
W:Una...
W:
W:Los pastelikos vo kumer, kon almendrikas y la myel (x2)
W:Una...

